X:1
T:O Lord, Remember Me
T:O Lord, Remember Me
T:Johanna Kinkel (1810­1858), arr George F. Root
T:Anonymous, 1872
T:Public Domain Courtesy of the Cyber Hymnal™
C:Johanna Kinkel (1810­1858), arr George F. Root
Z:Public Domain
Z:Courtesy of the Cyber Hymnal™
%%score ( 1 2 ) ( 3 4 )
L:1/8
Q:1/4=105
M:4/4
K:Ab
V:1 treble 
V:2 treble 
V:3 bass 
V:4 bass 
V:1
 [CE]2 [A,C]>[CE] [CA]3 [CA] | [DA]2 [DG]2 z2 [DE]2 | [CE]2 [CA]2 [Fd]3 [Ec] | %3
w: 1.~When storms a- round are|sweep- ing, When|lone my watch I’m|
w: 2.~When walk- ing on life’s|o- cean, Con-|trol its rag- ing|
w: 3.~When weight of sin op-|press- es, When|dark des- pair dis-|
 [Ec]2 [EB]2 z2 [CA]2 | [CE]3 [DF] [E_G]2 [EG]2 | [E_G]2 [DF]2 z2 [=DF]2 | %6
w: keep- ing, ’Mid|fires of e- vil|fall- ing, ’Mid|
w: mo- tion; When|from its dan- gers|shrink- ing, When|
w: tress- es, All|through the life that’s|mor- tal, And|
 [=DF]3 [EG] [FA]2 [FA]2 | [FA]2 [EG]2 z2 ||[M:3/4]"^Refrain" [DE]2 | [CE]4 [CA]2 | %10
w: temp- ters’ voic- es|call- ing,|||
w: in its dread deeps|sink- ing,|Re-|mem- ber|
w: when I pass death’s|por- tal,|||
"^riten." [Ec]4 [EA]2 | [FA]4 [DF]2 [CE]4 A2 | [Gd]4 [Ac]2 | (c2 B2) [FA]2 | [EA]6 | [EG]6 | %16
w: ||||||
w: me, O|Might- y One! Re-|mem- ber|me, * O|Might-|y|
w: ||||||
 [EA]6- | [EA]4 x2 |] x4 |] %19
w: |||
w: One!|||
w: |||
V:2
 x8 | x8 | x8 | x8 | x8 | x8 | x8 | x6 ||[M:3/4] x2 | x6 | x6 | x10 A2 | x6 | F4 x2 | x6 | x6 | %16
 x6 | x6 |] x4 |] %19
V:3
 [A,,E,]2 [A,,E,]>[A,,E,] [A,,E,]3 [A,,E,] | [B,,E,]2 [B,,E,]2 z2 [B,,G,]2 | %2
 [A,,A,]2 [F,A,]2 [D,A,]3 [A,,A,] | [E,A,]2 [E,G,]2 z2 [A,,A,]2 | %4
 [A,,A,]3 [A,,A,] [A,,A,]2 [C,A,]2 | [D,A,]2 [D,A,]2 z2 [B,,B,]2 | %6
 [B,,B,]3 [B,,B,] [B,,B,]2 [=D,B,]2 | [E,B,]2 [E,B,]2 z2 ||[M:3/4] [E,G,]2 | [A,,A,]4 [A,,A,]2 | %10
 [A,,A,]4 [C,A,]2 | [D,A,]4 [F,A,]2 x6 | A,4 [CE]2 | [B,E]4 [A,E]2 | (E2 D2) [D,B,]2 | [E,C]6 | %16
 [E,D]6 | [A,,C]6- |] [A,,C]4 |] %19
V:4
 x8 | x8 | x8 | x8 | x8 | x8 | x8 | x6 ||[M:3/4] x2 | x6 | x6 | x12 | A,4 x2 | x6 | D,4 x2 | x6 | %16
 x6 | x6 |] x4 |] %19

